X:670
T:Drunken Piper, The 
C:Joe Buchanan's Scottish Tome - Page 206.1
I:206 1
R:Reel
Z:Carl Alliaon
L:1/16
M:4/4
K:G
e2 | "Am"A>AA>B d2>e2 | e>dB>d e2g2 | "G"G>GG>B d2>e2 | d>BG>B d2>e2 | 
"Am"A>AA>B d2>e2 | e>dB>d e2a2 | "G"g2"Am"e<a e>fe>d | "G"B2A2 "Am"A<A :| 
g2 | "Am"a4 e2a2 | e>de>f g2a2 | "G"G>GG>B d2>e2 | "G"d>BG>B d2g2 | 
"Am"a4 e2a2 | e>de>f g2a2 | "G"g2"Am"e<a e>fe>d | "G"B2A2 "Am"A<A g2 | 
"Am"a4 e2a2 | e>de>f g2a2 | "G"G>GG>B d2>e2 | d>BG>B d2g2 | 
"Am"A>AA>B d2>e2 | e>dB>d e2a2 | "G"g2e<a e>fe>d | "G"B2A2 "Am"A<A |] 

